X:167
T: ICH STAND AUF HOHEN BERGEN
N: E0089F
O: Europa, Mitteleuropa, Deutschland, Mosel, Veldenz; Gornhausen
R: erzaehlendes Volks - Lied, Sage, Liebe, Leid
M: 6/8
L: 1/16
K: A
E2 | C2E2A2C2E2c2 | c2B2z6
E2 | E2G2B2d2c2B2 | A6z4
Ac | e2e2e2e2d2c2 | d2B2z6
E2 | E2G2B2d2c2B2 | A6z4

@@@ Tune index: 3817
